svg/office_building_remove.svg

<svg xmlns="http://www.w3.org/2000/svg" viewBox="0 0 24 24"><path d="M13.4 21c-.2-.6-.4-1.3-.4-2 0-1.5.6-2.9 1.5-4H13v-2h2v1.5c.6-.5 1.3-.9 2-1.2V3H3v18h6v-3.5h2V21zM13 5h2v2h-2zm0 4h2v2h-2zM7 19H5v-2h2zm0-4H5v-2h2zm0-4H5V9h2zm0-4H5V5h2zm2-2h2v2H9zm0 4h2v2H9zm0 6v-2h2v2zm13.5 1.9L20.4 19l2.1 2.1-1.4 1.4-2.1-2.1-2.1 2.1-1.4-1.4 2.1-2.1-2.1-2.1 1.4-1.4 2.1 2.1 2.1-2.1z"/></svg>

<svg xmlns="http://www.w3.org/2000/svg" id="mdi-office-building-remove" viewBox="0 0 24 24"><path d="M13.4 21C13.2 20.4 13 19.7 13 19C13 17.5 13.6 16.1 14.5 15H13V13H15V14.5C15.6 14 16.3 13.6 17 13.3V3H3V21H9V17.5H11V21H13.4M13 5H15V7H13V5M13 9H15V11H13V9M7 19H5V17H7V19M7 15H5V13H7V15M7 11H5V9H7V11M7 7H5V5H7V7M9 5H11V7H9V5M9 9H11V11H9V9M9 15V13H11V15H9M22.5 16.9L20.4 19L22.5 21.1L21.1 22.5L19 20.4L16.9 22.5L15.5 21.1L17.6 19L15.5 16.9L16.9 15.5L19 17.6L21.1 15.5L22.5 16.9Z" /></svg>
